; generated by Slic3r 1.2.9 on 2019-07-10 at 10:25:48

; external perimeters extrusion width = 0.40mm
; perimeters extrusion width = 0.67mm
; infill extrusion width = 0.67mm
; solid infill extrusion width = 0.67mm
; top infill extrusion width = 0.67mm
; support material extrusion width = 0.40mm

M190 S60 ; set bed temperature
M104 S210 ; set temperature
G28 ; home all axes
G1 Z5 F5000 ; lift nozzle

M109 S210 ; wait for temperature to be reached
G21 ; set units to millimeters
G90 ; use absolute coordinates
M82 ; use absolute distances for extrusion
G92 E0
G1 Z0.200 F7800.000
G1 E-2.00000 F2400.00000
G92 E0
G1 X40.838 Y51.093 F7800.000
G1 E2.00000 F2400.00000
G1 X41.901 Y50.323 E2.03897 F1800.000
G1 X51.627 Y44.118 E2.38150
G1 X52.700 Y43.520 E2.41798
G1 X53.001 Y43.374 E2.42789
G1 X54.133 Y42.900 E2.46435
G1 X54.447 Y42.789 E2.47424
G1 X55.626 Y42.442 E2.51072
G1 X55.951 Y42.366 E2.52063
G1 X57.160 Y42.153 E2.55709
G1 X57.491 Y42.113 E2.56698
G1 X58.717 Y42.035 E2.60347
G1 X59.140 Y42.032 E2.61602
G1 X105.851 Y42.032 E4.00292
G1 X106.270 Y42.035 E4.01538 F1800.000
G1 X107.496 Y42.112 E4.05183
G1 X107.826 Y42.152 E4.06172
G1 X109.036 Y42.365 E4.09819
G1 X109.360 Y42.441 E4.10808
G1 X110.539 Y42.786 E4.14455
G1 X110.853 Y42.898 E4.15443
G1 X111.986 Y43.372 E4.19091
G1 X112.285 Y43.517 E4.20079
G1 X113.359 Y44.114 E4.23727
G1 X123.097 Y50.322 E4.58017
G1 X124.065 Y51.015 E4.61550
G1 X124.325 Y51.224 E4.62541
G1 X125.240 Y52.044 E4.66190
G1 X125.476 Y52.280 E4.67179
G1 X126.295 Y53.197 E4.70830
G1 X126.503 Y53.458 E4.71820
G1 X127.215 Y54.460 E4.75470
G1 X127.393 Y54.742 E4.76460
G1 X127.989 Y55.817 E4.80110
G1 X128.134 Y56.117 E4.81099
G1 X128.608 Y57.251 E4.84749
G1 X128.719 Y57.565 E4.85738
G1 X129.064 Y58.746 E4.89390
G1 X129.140 Y59.070 E4.90379
G1 X129.352 Y60.281 E4.94028
G1 X129.391 Y60.612 E4.95018
G1 X129.467 Y61.840 E4.98671
G1 X129.467 Y108.152 E6.36178
G1 X129.391 Y109.379 E6.39828
G1 X129.352 Y109.710 E6.40817
G1 X129.141 Y110.920 E6.44466
G1 X129.065 Y111.245 E6.45455
G1 X128.721 Y112.425 E6.49107
G1 X128.610 Y112.740 E6.50096
G1 X128.137 Y113.874 E6.53744
G1 X127.991 Y114.173 E6.54733
G1 X127.395 Y115.248 E6.58383
G1 X127.218 Y115.530 E6.59372
G1 X126.506 Y116.533 E6.63023
G1 X126.299 Y116.793 E6.64012
G1 X125.481 Y117.710 E6.67660
G1 X125.245 Y117.946 E6.68649
G1 X124.330 Y118.767 E6.72299
G1 X124.070 Y118.976 E6.73288
G1 X123.102 Y119.670 E6.76825
G1 X113.688 Y125.678 E7.09984
G1 X113.353 Y125.890 E7.11163
G1 X112.278 Y126.486 E7.14811
G1 X111.979 Y126.632 E7.15800
G1 X110.845 Y127.105 E7.19448
G1 X110.531 Y127.216 E7.20437
G1 X109.352 Y127.561 E7.24085
G1 X109.028 Y127.637 E7.25073
G1 X107.817 Y127.849 E7.28722
G1 X107.486 Y127.889 E7.29711
G1 X106.260 Y127.966 E7.33359
G1 X105.849 Y127.968 E7.34581
G1 X59.142 Y127.968 E8.73259
G1 X58.727 Y127.965 E8.74492
G1 X57.500 Y127.888 E8.78142
G1 X57.169 Y127.849 E8.79131
G1 X55.959 Y127.636 E8.82780
G1 X55.634 Y127.560 E8.83770
G1 X54.455 Y127.214 E8.87419
G1 X54.141 Y127.103 E8.88408
G1 X53.007 Y126.629 E8.92057
G1 X52.707 Y126.483 E8.93046
G1 X51.633 Y125.886 E8.96696
G1 X41.897 Y119.669 E9.30995
G1 X40.940 Y118.983 E9.34490
G1 X40.680 Y118.775 E9.35478
G1 X39.765 Y117.956 E9.39125
G1 X39.530 Y117.721 E9.40114
G1 X38.711 Y116.804 E9.43762
G1 X38.503 Y116.544 E9.44750
G1 X37.791 Y115.543 E9.48398
G1 X37.613 Y115.262 E9.49386
G1 X37.016 Y114.188 E9.53035
G1 X36.871 Y113.888 E9.54023
G1 X36.396 Y112.755 E9.57670
G1 X36.285 Y112.441 E9.58659
G1 X35.939 Y111.262 E9.62307
G1 X35.863 Y110.938 E9.63295
G1 X35.650 Y109.728 E9.66943
G1 X35.611 Y109.398 E9.67932
G1 X35.533 Y108.172 E9.71579
G1 X35.533 Y61.820 E11.09205
G1 X35.611 Y60.593 E11.12853
G1 X35.651 Y60.263 E11.13842
G1 X35.864 Y59.053 E11.17490
G1 X35.940 Y58.728 E11.18480
G1 X36.287 Y57.549 E11.22129
G1 X36.398 Y57.234 E11.23120
G1 X36.873 Y56.102 E11.26765
G1 X37.019 Y55.802 E11.27756
G1 X37.616 Y54.728 E11.31403
G1 X37.794 Y54.447 E11.32393
G1 X38.507 Y53.446 E11.36040
G1 X38.715 Y53.186 E11.37029
G1 X39.534 Y52.270 E11.40678
G1 X39.769 Y52.035 E11.41666
G1 X40.792 Y51.130 E11.45718
G1 X41.061 Y51.372 F7800.000
G1 X42.094 Y50.624 E11.49503 F1800.000
G1 X51.818 Y44.420 E11.83751
G1 X52.856 Y43.842 E11.87281
G1 X53.157 Y43.696 E11.88272
G1 X54.253 Y43.236 E11.91800
G1 X54.566 Y43.125 E11.92789
G1 X55.707 Y42.790 E11.96320
G1 X56.032 Y42.714 E11.97311
G1 X57.203 Y42.507 E12.00840
G1 X57.533 Y42.468 E12.01828
G1 X58.720 Y42.392 E12.05359
G1 X59.140 Y42.389 E12.06606
G1 X105.851 Y42.389 E13.45296
G1 X106.267 Y42.392 E13.46533 F1800.000
G1 X107.453 Y42.467 E13.50061
G1 X107.784 Y42.506 E13.51050
G1 X108.955 Y42.713 E13.54580
G1 X109.279 Y42.788 E13.55568
G1 X110.420 Y43.123 E13.59098
G1 X110.733 Y43.234 E13.60086
G1 X111.830 Y43.693 E13.63616
G1 X112.130 Y43.839 E13.64604
G1 X113.169 Y44.416 E13.68134
G1 X122.905 Y50.623 E14.02419
G1 X123.842 Y51.294 E14.05839
G1 X124.102 Y51.503 E14.06829
G1 X124.988 Y52.296 E14.10360
G1 X125.223 Y52.532 E14.11349
G1 X126.016 Y53.420 E14.14883
G1 X126.224 Y53.680 E14.15872
G1 X126.913 Y54.650 E14.19405
G1 X127.090 Y54.932 E14.20395
G1 X127.668 Y55.973 E14.23927
G1 X127.813 Y56.272 E14.24916
G1 X128.271 Y57.370 E14.28448
G1 X128.382 Y57.684 E14.29438
G1 X128.716 Y58.827 E14.32972
G1 X128.792 Y59.151 E14.33961
G1 X128.997 Y60.323 E14.37493
G1 X129.036 Y60.654 E14.38482
G1 X129.110 Y61.842 E14.42017
G1 X129.110 Y108.150 E15.79511
G1 X129.037 Y109.337 E15.83043
G1 X128.998 Y109.668 E15.84032
G1 X128.793 Y110.840 E15.87563
G1 X128.718 Y111.164 E15.88552
G1 X128.384 Y112.306 E15.92086
G1 X128.273 Y112.621 E15.93075
G1 X127.815 Y113.718 E15.96606
G1 X127.670 Y114.018 E15.97595
G1 X127.093 Y115.058 E16.01127
G1 X126.916 Y115.340 E16.02116
G1 X126.227 Y116.310 E16.05649
G1 X126.019 Y116.571 E16.06638
G1 X125.228 Y117.458 E16.10169
G1 X124.993 Y117.694 E16.11158
G1 X124.107 Y118.489 E16.14690
G1 X123.847 Y118.697 E16.15679
G1 X122.910 Y119.369 E16.19102
G1 X113.496 Y125.377 E16.52261
G1 X113.162 Y125.588 E16.53434
G1 X112.123 Y126.165 E16.56964
G1 X111.823 Y126.310 E16.57953
G1 X110.726 Y126.769 E16.61483
G1 X110.412 Y126.880 E16.62472
G1 X109.271 Y127.214 E16.66002
G1 X108.947 Y127.289 E16.66991
G1 X107.775 Y127.495 E16.70522
G1 X107.444 Y127.534 E16.71511
G1 X106.258 Y127.608 E16.75041
G1 X105.849 Y127.611 E16.76255
G1 X59.142 Y127.611 E18.14933
G1 X58.729 Y127.608 E18.16159
G1 X57.542 Y127.534 E18.19691
G1 X57.211 Y127.494 E18.20680
G1 X56.040 Y127.288 E18.24211
G1 X55.715 Y127.212 E18.25202
G1 X54.574 Y126.878 E18.28732
G1 X54.260 Y126.766 E18.29721
G1 X53.163 Y126.307 E18.33253
G1 X52.863 Y126.162 E18.34242
G1 X51.824 Y125.584 E18.37774
G1 X42.089 Y119.368 E18.72067
G1 X41.163 Y118.705 E18.75450
G1 X40.903 Y118.497 E18.76438
G1 X40.017 Y117.704 E18.79967
G1 X39.782 Y117.468 E18.80956
G1 X38.990 Y116.582 E18.84486
G1 X38.782 Y116.322 E18.85475
G1 X38.093 Y115.353 E18.89004
G1 X37.915 Y115.071 E18.89993
G1 X37.337 Y114.032 E18.93524
G1 X37.192 Y113.732 E18.94512
G1 X36.733 Y112.636 E18.98041
G1 X36.622 Y112.322 E18.99030
G1 X36.287 Y111.181 E19.02561
G1 X36.211 Y110.857 E19.03549
G1 X36.005 Y109.686 E19.07079
G1 X35.965 Y109.355 E19.08068
G1 X35.890 Y108.169 E19.11598
G1 X35.890 Y61.823 E20.49206
G1 X35.966 Y60.636 E20.52737
G1 X36.005 Y60.305 E20.53726
G1 X36.212 Y59.134 E20.57257
G1 X36.288 Y58.809 E20.58247
G1 X36.623 Y57.668 E20.61777
G1 X36.735 Y57.354 E20.62768
G1 X37.194 Y56.258 E20.66296
G1 X37.340 Y55.958 E20.67287
G1 X37.918 Y54.919 E20.70816
G1 X38.096 Y54.637 E20.71807
G1 X38.786 Y53.669 E20.75336
G1 X38.994 Y53.409 E20.76325
G1 X39.786 Y52.523 E20.79856
G1 X40.022 Y52.287 E20.80844
G1 X41.015 Y51.409 E20.84779
G1 X41.284 Y51.651 F7800.000
G1 X42.286 Y50.925 E20.88450 F1800.000
G1 X52.008 Y44.722 E21.22694
G1 X53.012 Y44.163 E21.26106
G1 X53.313 Y44.017 E21.27097
G1 X54.372 Y43.573 E21.30508
G1 X54.686 Y43.461 E21.31496
G1 X55.789 Y43.137 E21.34910
G1 X56.114 Y43.061 E21.35900
G1 X57.245 Y42.862 E21.39312
G1 X57.576 Y42.822 E21.40300
G1 X58.723 Y42.749 E21.43714
G1 X59.140 Y42.746 E21.44952
G1 X105.851 Y42.746 E22.83642
G1 X106.265 Y42.749 E22.84871 F1800.000
G1 X107.411 Y42.822 E22.88281
G1 X107.742 Y42.861 E22.89270
G1 X108.873 Y43.060 E22.92682
G1 X109.198 Y43.136 E22.93670
G1 X110.300 Y43.460 E22.97082
G1 X110.614 Y43.571 E22.98071
G1 X111.674 Y44.014 E23.01483
G1 X111.974 Y44.160 E23.02471
G1 X112.978 Y44.718 E23.05883
G1 X122.713 Y50.925 E23.40163
G1 X123.619 Y51.573 E23.43469
G1 X123.879 Y51.781 E23.44459
G1 X124.735 Y52.549 E23.47873
G1 X124.970 Y52.784 E23.48862
G1 X125.737 Y53.643 E23.52278
G1 X125.944 Y53.903 E23.53267
G1 X126.611 Y54.841 E23.56682
G1 X126.788 Y55.123 E23.57672
G1 X127.346 Y56.128 E23.61086
G1 X127.492 Y56.428 E23.62075
G1 X127.935 Y57.489 E23.65490
G1 X128.046 Y57.803 E23.66479
G1 X128.369 Y58.908 E23.69896
G1 X128.444 Y59.232 E23.70885
G1 X128.643 Y60.365 E23.74299
G1 X128.682 Y60.696 E23.75288
G1 X128.753 Y61.844 E23.78705
G1 X128.753 Y108.148 E25.16185
G1 X128.682 Y109.295 E25.19599
G1 X128.643 Y109.626 E25.20588
G1 X128.445 Y110.759 E25.24002
G1 X128.370 Y111.083 E25.24991
G1 X128.047 Y112.188 E25.28407
G1 X127.936 Y112.502 E25.29396
G1 X127.494 Y113.562 E25.32809
G1 X127.349 Y113.862 E25.33798
G1 X126.791 Y114.868 E25.37212
G1 X126.614 Y115.150 E25.38201
G1 X125.948 Y116.088 E25.41617
G1 X125.740 Y116.348 E25.42606
G1 X124.975 Y117.206 E25.46019
G1 X124.740 Y117.442 E25.47008
G1 X123.884 Y118.210 E25.50423
G1 X123.624 Y118.418 E25.51412
G1 X122.718 Y119.068 E25.54721
G1 X113.304 Y125.076 E25.87880
G1 X112.972 Y125.286 E25.89046
G1 X111.967 Y125.844 E25.92459
G1 X111.667 Y125.989 E25.93448
G1 X110.607 Y126.432 E25.96860
G1 X110.293 Y126.543 E25.97849
G1 X109.190 Y126.866 E26.01262
G1 X108.865 Y126.942 E26.02250
G1 X107.733 Y127.140 E26.05664
G1 X107.402 Y127.179 E26.06653
G1 X106.255 Y127.251 E26.10065
G1 X105.849 Y127.254 E26.11272
G1 X59.142 Y127.254 E27.49950
G1 X58.732 Y127.251 E27.51168
G1 X57.584 Y127.179 E27.54582
G1 X57.254 Y127.140 E27.55571
G1 X56.121 Y126.940 E27.58985
G1 X55.813 Y126.868 E27.59924
G1 X54.693 Y126.541 E27.63388
G1 X54.380 Y126.430 E27.64377
G1 X53.319 Y125.986 E27.67791
G1 X53.019 Y125.841 E27.68780
G1 X52.014 Y125.282 E27.72194
G1 X42.281 Y119.067 E28.06481
G1 X41.386 Y118.426 E28.09751
G1 X41.126 Y118.218 E28.10739
G1 X40.270 Y117.451 E28.14151
G1 X40.035 Y117.216 E28.15140
G1 X39.269 Y116.359 E28.18552
G1 X39.061 Y116.099 E28.19541
G1 X38.395 Y115.162 E28.22953
G1 X38.217 Y114.881 E28.23941
G1 X37.658 Y113.876 E28.27354
G1 X37.513 Y113.577 E28.28343
G1 X37.070 Y112.517 E28.31754
G1 X36.958 Y112.203 E28.32744
G1 X36.635 Y111.100 E28.36156
G1 X36.559 Y110.776 E28.37145
G1 X36.359 Y109.644 E28.40557
G1 X36.320 Y109.313 E28.41546
G1 X36.247 Y108.166 E28.44958
G1 X36.247 Y61.825 E29.82550
G1 X36.320 Y60.678 E29.85963
G1 X36.360 Y60.347 E29.86952
G1 X36.560 Y59.215 E29.90365
G1 X36.636 Y58.891 E29.91355
G1 X36.960 Y57.788 E29.94768
G1 X37.071 Y57.473 E29.95759
G1 X37.515 Y56.414 E29.99169
G1 X37.661 Y56.114 E30.00160
G1 X38.220 Y55.110 E30.03571
G1 X38.398 Y54.828 E30.04562
G1 X39.065 Y53.892 E30.07973
G1 X39.272 Y53.632 E30.08962
G1 X40.039 Y52.775 E30.12375
G1 X40.274 Y52.540 E30.13364
G1 X41.237 Y51.688 E30.17181
G1 E28.17181 F2400.00000
G92 E0
G1 X104.163 Y112.964 F7800.000
G1 E2.00000 F2400.00000
G1 X104.332 Y112.689 E2.00959 F1800.000
G1 X104.542 Y112.443 E2.01918
G1 X104.787 Y112.233 E2.02878
G1 X105.063 Y112.064 E2.03837
G1 X105.361 Y111.941 E2.04796
G1 X105.675 Y111.865 E2.05755
G1 X105.984 Y111.841 E2.06673 F1800.000
G1 X106.318 Y111.865 E2.07667
G1 X106.634 Y111.941 E2.08633
G1 X106.932 Y112.064 E2.09592
G1 X107.208 Y112.233 E2.10551
G1 X107.453 Y112.443 E2.11510
G1 X107.663 Y112.689 E2.12469
G1 X107.832 Y112.964 E2.13429
G1 X107.956 Y113.263 E2.14388
G1 X108.031 Y113.577 E2.15347
G1 X108.056 Y113.899 E2.16306
G1 X108.031 Y114.221 E2.17266
G1 X107.956 Y114.535 E2.18225
G1 X107.832 Y114.833 E2.19184
G1 X107.663 Y115.109 E2.20143
G1 X107.453 Y115.355 E2.21102
G1 X107.208 Y115.564 E2.22062
G1 X106.932 Y115.733 E2.23021
G1 X106.634 Y115.857 E2.23980
G1 X106.320 Y115.932 E2.24939
G1 X105.998 Y115.958 E2.25898
G1 X105.675 Y115.932 E2.26858
G1 X105.361 Y115.857 E2.27817
G1 X105.063 Y115.733 E2.28776
G1 X104.787 Y115.564 E2.29735
G1 X104.542 Y115.355 E2.30695
G1 X104.332 Y115.109 E2.31654
G1 X104.163 Y114.833 E2.32613
G1 X104.040 Y114.535 E2.33572
G1 X103.964 Y114.221 E2.34531
G1 X103.939 Y113.899 E2.35491
G1 X103.964 Y113.577 E2.36450
G1 X104.040 Y113.263 E2.37409
G1 X104.140 Y113.020 E2.38190
G1 X104.482 Y113.127 F7800.000
G1 X104.622 Y112.899 E2.38982 F1800.000
G1 X104.795 Y112.696 E2.39775
G1 X104.998 Y112.523 E2.40567
G1 X105.225 Y112.384 E2.41359
G1 X105.472 Y112.281 E2.42152
G1 X105.732 Y112.219 E2.42944
G1 X105.985 Y112.199 E2.43699 F1800.000
G1 X106.263 Y112.219 E2.44526
G1 X106.523 Y112.281 E2.45321
G1 X106.770 Y112.384 E2.46113
G1 X106.997 Y112.523 E2.46905
G1 X107.200 Y112.696 E2.47698
G1 X107.373 Y112.899 E2.48490
G1 X107.513 Y113.127 E2.49282
G1 X107.615 Y113.373 E2.50075
G1 X107.677 Y113.633 E2.50867
G1 X107.698 Y113.899 E2.51659
G1 X107.677 Y114.165 E2.52452
G1 X107.615 Y114.424 E2.53244
G1 X107.513 Y114.671 E2.54036
G1 X107.373 Y114.898 E2.54829
G1 X107.200 Y115.101 E2.55621
G1 X106.997 Y115.275 E2.56413
G1 X106.770 Y115.414 E2.57206
G1 X106.523 Y115.516 E2.57998
G1 X106.264 Y115.579 E2.58790
G1 X105.998 Y115.599 E2.59583
G1 X105.732 Y115.579 E2.60375
G1 X105.472 Y115.516 E2.61167
G1 X105.225 Y115.414 E2.61960
G1 X104.998 Y115.275 E2.62752
G1 X104.795 Y115.101 E2.63544
G1 X104.622 Y114.898 E2.64337
G1 X104.482 Y114.671 E2.65129
G1 X104.380 Y114.424 E2.65921
G1 X104.318 Y114.165 E2.66714
G1 X104.297 Y113.899 E2.67506
G1 X104.318 Y113.633 E2.68299
G1 X104.380 Y113.373 E2.69091
G1 X104.459 Y113.182 E2.69705
G1 X104.343 Y112.899 F7800.000
G1 X106.498 Y111.453 F7800.000
G1 X105.334 Y110.296 F7800.000
G1 X106.498 Y100.710 F7800.000
G1 X111.111 Y106.336 F7800.000
G1 X111.961 Y107.431 F7800.000
G1 X112.825 Y108.298 F7800.000
G1 X112.840 Y108.311 F7800.000
G1 X112.951 Y108.399 F7800.000
G1 X113.563 Y108.833 F7800.000
G1 X113.440 Y108.535 E2.70664 F1800.000
G1 X113.364 Y108.221 E2.71623
G1 X113.339 Y107.899 E2.72583
G1 X113.364 Y107.577 E2.73542
G1 X113.436 Y107.276 E2.74460
G1 X113.562 Y106.966 E2.75454
G1 X113.732 Y106.689 E2.76419
G1 X113.942 Y106.443 E2.77378
G1 X114.187 Y106.233 E2.78338
G1 X114.463 Y106.064 E2.79297
G1 X114.761 Y105.941 E2.80256
G1 X115.075 Y105.865 E2.81215
G1 X115.384 Y105.841 E2.82133 F1800.000
G1 X115.718 Y105.865 E2.83127
G1 X116.034 Y105.941 E2.84093
G1 X116.332 Y106.064 E2.85052
G1 X116.608 Y106.233 E2.86011
G1 X116.853 Y106.443 E2.86970
G1 X117.063 Y106.689 E2.87929
G1 X117.232 Y106.964 E2.88889
G1 X117.356 Y107.263 E2.89848
G1 X117.431 Y107.577 E2.90807
G1 X117.456 Y107.899 E2.91766
G1 X117.431 Y108.221 E2.92725
G1 X117.356 Y108.535 E2.93685
G1 X117.232 Y108.833 E2.94644
G1 X117.063 Y109.109 E2.95603
G1 X116.853 Y109.355 E2.96562
G1 X116.608 Y109.564 E2.97522
G1 X116.332 Y109.733 E2.98481
G1 X116.034 Y109.857 E2.99440
G1 X115.720 Y109.932 E3.00399
G1 X115.398 Y109.958 E3.01358
G1 X115.075 Y109.932 E3.02318
G1 X114.761 Y109.857 E3.03277
G1 X114.463 Y109.733 E3.04236
G1 X114.187 Y109.564 E3.05195
G1 X113.942 Y109.355 E3.06155
G1 X113.732 Y109.109 E3.07114
G1 X113.594 Y108.885 E3.07895
G1 X113.882 Y108.671 F7800.000
G1 X113.780 Y108.424 E3.08687 F1800.000
G1 X113.718 Y108.165 E3.09479
G1 X113.697 Y107.899 E3.10272
G1 X113.718 Y107.633 E3.11064
G1 X113.777 Y107.385 E3.11819
G1 X113.882 Y107.127 E3.12646
G1 X114.022 Y106.899 E3.13441
G1 X114.195 Y106.696 E3.14233
G1 X114.398 Y106.523 E3.15025
G1 X114.625 Y106.384 E3.15818
G1 X114.872 Y106.281 E3.16610
G1 X115.132 Y106.219 E3.17402
G1 X115.385 Y106.199 E3.18158 F1800.000
G1 X115.663 Y106.219 E3.18984
G1 X115.923 Y106.281 E3.19779
G1 X116.170 Y106.384 E3.20571
G1 X116.397 Y106.523 E3.21364
G1 X116.600 Y106.696 E3.22156
G1 X116.773 Y106.899 E3.22948
G1 X116.913 Y107.127 E3.23741
G1 X117.015 Y107.373 E3.24533
G1 X117.077 Y107.633 E3.25325
G1 X117.098 Y107.899 E3.26118
G1 X117.077 Y108.165 E3.26910
